public/images/home/why-us/group.svg

<svg width="29" height="37" viewBox="0 0 29 37" fill="none" xmlns="http://www.w3.org/2000/svg">
<path d="M15.527 10.1661L8.77653 1.16545C8.35245 0.598495 7.40095 0.598495 6.97688 1.16545L0.226419 10.1661C-0.328538 10.9045 0.199792 11.9658 1.12624 11.9658H4.50151V33.3422C4.50151 33.9641 5.00471 34.4673 5.62657 34.4673H10.1268C10.7487 34.4673 11.2369 33.9641 11.2369 33.3422V11.9658H14.6271C15.5544 11.9658 16.0813 10.9037 15.527 10.1661Z" fill="#FF6B00"/>
<path d="M15.2077 21.8984L18.3063 21.8984L18.3063 35.712C18.3063 36.2804 18.7525 36.7403 19.3209 36.7403L23.4341 36.7403C24.0025 36.7403 24.4624 36.2804 24.4624 35.712L24.4624 21.8985L27.5473 21.8985C28.3941 21.8985 28.8769 20.9284 28.3697 20.2536L22.1999 12.0272C21.7893 11.4784 20.965 11.4792 20.555 12.0272L14.3853 20.2536C13.8786 20.9277 14.3602 21.8984 15.2077 21.8984Z" fill="#434343"/>
</svg>

<svg xmlns="http://www.w3.org/2000/svg" width="29" height="37" fill="none" xmlns:v="https://vecta.io/nano"><path d="M15.527 10.166l-6.75-9.001c-.424-.567-1.376-.567-1.8 0l-6.75 9.001a1.13 1.13 0 0 0 .9 1.8h3.375v21.376c0 .622.503 1.125 1.125 1.125h4.5c.622 0 1.11-.503 1.11-1.125V11.966h3.39a1.13 1.13 0 0 0 .9-1.8z" fill="#ff6b00"/><path d="M15.208 21.898h3.099v13.814c0 .568.446 1.028 1.015 1.028h4.113a1.03 1.03 0 0 0 1.028-1.028V21.899h3.085a1.03 1.03 0 0 0 .822-1.645l-6.17-8.226a1.03 1.03 0 0 0-1.645 0l-6.17 8.226a1.03 1.03 0 0 0 .822 1.645z" fill="#434343"/></svg>
